packages/foundations/assets/icons/functional/images/notification/warning_triangle.svg

<svg xmlns="http://www.w3.org/2000/svg" width="32" height="32" fill="none"><path fill="#1A1C1F" fill-rule="evenodd" d="M15.219 2.609c-.881.239-1.511.749-1.981 1.604-.226.412-10.563 20.198-10.827 20.724-.308.614-.402.977-.4 1.544.002.845.279 1.515.875 2.113.248.25.469.411.747.545.789.379-.139.353 12.425.354 11.123 0 11.346-.002 11.751-.105.561-.144.899-.336 1.317-.748.584-.576.86-1.266.863-2.16.002-.553-.092-.93-.373-1.49-.451-.9-10.767-20.624-10.95-20.937-.385-.657-1.018-1.175-1.702-1.393-.509-.162-1.256-.183-1.745-.051m1.175 1.868c.092.056.226.182.298.28.072.097 2.639 4.964 5.705 10.816 5.47 10.443 5.574 10.646 5.575 10.942.001.252-.026.341-.161.533a1.4 1.4 0 0 1-.373.351l-.211.119-11.147.001c-7.506 0-11.211-.018-11.345-.055-.424-.118-.747-.557-.743-1.012.002-.231.491-1.183 5.593-10.886 3.076-5.848 5.65-10.712 5.722-10.808.28-.379.738-.497 1.087-.281m-.741 5.096a1.07 1.07 0 0 0-.609.649c-.078.282-.079 9.458-.001 9.739.07.251.34.565.568.66.22.092.558.092.778 0 .228-.095.498-.409.568-.66.08-.287.077-9.458-.003-9.746-.107-.384-.574-.727-.981-.719a1.4 1.4 0 0 0-.32.077m-.186 13.255c-.929.431-1.135 1.549-.416 2.25.394.383.888.502 1.382.334 1.164-.397 1.278-2.026.178-2.558-.316-.153-.845-.165-1.144-.026"/></svg>

<svg width="32" height="32" viewBox="0 0 32 32" fill="none" xmlns="http://www.w3.org/2000/svg"><path d="M15.219 2.609 C 14.338 2.848,13.708 3.358,13.238 4.213 C 13.012 4.625,2.675 24.411,2.411 24.937 C 2.103 25.551,2.009 25.914,2.011 26.481 C 2.013 27.326,2.290 27.996,2.886 28.594 C 3.134 28.844,3.355 29.005,3.633 29.139 C 4.422 29.518,3.494 29.492,16.058 29.493 C 27.181 29.493,27.404 29.491,27.809 29.388 C 28.370 29.244,28.708 29.052,29.126 28.640 C 29.710 28.064,29.986 27.374,29.989 26.480 C 29.991 25.927,29.897 25.550,29.616 24.990 C 29.165 24.090,18.849 4.366,18.666 4.053 C 18.281 3.396,17.648 2.878,16.964 2.660 C 16.455 2.498,15.708 2.477,15.219 2.609 M16.394 4.477 C 16.486 4.533,16.620 4.659,16.692 4.757 C 16.764 4.854,19.331 9.721,22.397 15.573 C 27.867 26.016,27.971 26.219,27.972 26.515 C 27.973 26.767,27.946 26.856,27.811 27.048 C 27.722 27.175,27.554 27.333,27.438 27.399 L 27.227 27.518 16.080 27.519 C 8.574 27.519,4.869 27.501,4.735 27.464 C 4.311 27.346,3.988 26.907,3.992 26.452 C 3.994 26.221,4.483 25.269,9.585 15.566 C 12.661 9.718,15.235 4.854,15.307 4.758 C 15.587 4.379,16.045 4.261,16.394 4.477 M15.653 9.573 C 15.387 9.668,15.119 9.953,15.044 10.222 C 14.966 10.504,14.965 19.680,15.043 19.961 C 15.113 20.212,15.383 20.526,15.611 20.621 C 15.831 20.713,16.169 20.713,16.389 20.621 C 16.617 20.526,16.887 20.212,16.957 19.961 C 17.037 19.674,17.034 10.503,16.954 10.215 C 16.847 9.831,16.380 9.488,15.973 9.496 C 15.915 9.497,15.771 9.532,15.653 9.573 M15.467 22.828 C 14.538 23.259,14.332 24.377,15.051 25.078 C 15.445 25.461,15.939 25.580,16.433 25.412 C 17.597 25.015,17.711 23.386,16.611 22.854 C 16.295 22.701,15.766 22.689,15.467 22.828 " fill="#1A1C1F" stroke="none" fill-rule="evenodd"></path></svg>
